!!!!SEGMENT: pl-wn--sd-xvi-qu-273--079_gomolka-mikolaj--pohancy-o-boze-zywy.krn
!!!cenid: 15xx:284
!!!COM: Gomółka, Mikołaj
!!!COM-rismid: pe30013343
!!!CDT: ~1535->1591/04/30
!!!CNT: Polish
!!!GTL: Melodiae na psalterz polski
!!!OTL: LXXIX. Pohańcy, o Boże żywy,
!!!ONB: PSALM LXXIX. Deus venerunt gentes in haereditatem tuam: poluerunt templum sanctū tuum,
!!!PDT: 1580
!!!AGN: Sacred
!!!SMS-siglum: PL-Wn
!!!SMS-shelfmark: SD XVI.Qu.273
!!!SMS-shelfwork: 079 G
!!!NIFC-rismid:
!!!ONB-nifc: Melodiae na psalterz polski
**kern	**text	**kern	**text	**kern	**text	**kern	**text
*part4	*part4	*part3	*part3	*part2	*part2	*part1	*part1
*staff4	*staff4	*staff3	*staff3	*staff2	*staff2	*staff1	*staff1
*clefF4	*	*clefC3	*	*clefC3	*	*clefC1	*
*k[]	*	*k[]	*	*k[]	*	*k[]	*
*d:	*	*d:	*	*d:	*	*d:	*
*M2/1	*	*M2/1	*	*M2/1	*	*M2/1	*
*met(C|)	*	*met(C|)	*	*met(C|)	*	*met(C|)	*
*I"BASSUS.	*	*I"TENOR.	*	*I"ALTUS.	*	*I"CANTUS.	*
=1-	=1	=1-	=1	=1-	=1	=1-	=1
1.D\	PO-	1.d\	PO-	1.f\	PO-	1.a\	PO-
2AA/	-háń-	2c/	-háń-	2e\	-háń-	2a\	-háń-
=2-	=2	=2-	=2	=2-	=2	=2-	=2
2E\	-cy,	2B/	-cy,	2e\	-cy,	2g/	-cy,
2C/	o	2e\	o	2g\	o	1cc\	o
1F\	bo-	1.f\	bo-	1.a\	bo-	.	.
.	.	.	.	.	.	2a\	bo-
=3-	=3	=3-	=3	=3-	=3	=3-	=3
1.D\	-że	.	.	.	.	1a\	-że
.	.	1d\	-że	2f\	-że	.	.
.	.	.	.	2.f\	ży-	1dd\	ży-
2D/	ży-	2d\	ży-	.	.	.	.
.	.	.	.	4g\	.	.	.
=4-	=4	=4-	=4	=4-	=4	=4-	=4
2A\	-wy,	2e\	-wy,	2a\	-wy,	2cc#X\	-wy,
2c\	Wo-	2A/	Wo-	2e\	Wo-	2a\	Wo-
2B\	-iu-	2B/	-iu-	2d\	-iu-	2g#X/	-iu-
2A\	-ią	2c/	-ią	2e\	-ią	2a\	-ią
=5-	=5	=5-	=5	=5-	=5	=5-	=5
1G#X\	twóy	1B/	twóy	2.e\	twóy	1b\	twóy
.	.	.	.	4d\	.	.	.
2A\	kray	2e\	kray	2c#X/	kray	2a\	kray
2B-X\	włá-	1d\	włá-	2d\	włá-	1gny\	włá-
=6-	=6	=6-	=6	=6-	=6	=6-	=6
2Gny\	-śći-	.	.	2B/	-śći-	.	.
2A\	.	2c#X/	-śći-	2A/	.	4f#X/	-śći-
.	.	.	.	.	.	4e/	.
2D/	-wy:	2d\	-wy:	2A/	-wy:	2f#X/	-wy:
2D/	Ko-	2d\	Ko-	2f\	Ko-	2a\	Ko-
=7-	=7	=7-	=7	=7-	=7	=7-	=7
!!LO:PB:g=original
2AA/	-śćiół	2.cny/	-śćiół	2e\	-śćiół	2ccny\	-śćiół
2A\	.	.	.	2f\	.	2cc\	twóy
.	.	4d\	.	.	.	.	.
2G\	twóy	2e\	twóy	2.g\	twóy	2.b\	ze-
2G\	ze-	4d\	ze-	.	.	.	.
.	.	4c/	.	4f\	ze-	4cc\	-sro-
=8-	=8	=8-	=8	=8-	=8	=8-	=8
2G\	-sro-	4B/	-sro-	4d\	-sro-	2dd\	-mo-
.	.	4A/	.	4cny/	-mo-	.	.
2GG/	-mo-	4B/	-mo-	4d\	-ći-	2dd\	-ći-
.	.	4c/	.	4e\	-li,	.	.
1D\	-ći-	1d\	-ći-	1f#X\	Miá-	1a\	-li,
=9-	=9	=9-	=9	=9-	=9	=9-	=9
1D\	-li,	1d\	-li,	1f#X\	-sto	1a\	Miá-
!	!	!	!	!LO:SIC:s=2f#:v	!	!	!
2D/	Miá-	2d\	Miá-	2fny\	z grun-	2a\	-sto
2G\	-sto	1d\	-sto	1g\	-tu	1b-X\	z grun-
=10-	=10	=10-	=10	=10-	=10	=10-	=10
2GG/	z grun-	.	.	.	.	.	.
2D/	-tu	2A/	z grun-	2f#X\	wy-	1a\	-tu
1.C#X/	wy-	1.A/	-tu	1.e\	-wró-	.	.
.	.	.	.	.	.	1e/	wy-
=11-	=11	=11-	=11	=11-	=11	=11-	=11
.	.	.	.	.	.	.	.
2D/	-wró-	1d\	wy-	2A/	-ći-	2f#X/	-wró-
1BB/	-ći-	.	.	1d\	.	1g#X\	-ći-
.	.	4c#X/	-wró-	.	.	.	.
.	.	4B/	-ći-	.	.	.	.
=12-	=12	=12-	=12	=12-	=12	=12-	=12
000AA/	-li.	000c\	-li.	000e\	-li.	000a/	-li.
==	==	==	==	==	==	==	==
*-	*-	*-	*-	*-	*-	*-	*-
!!!RDF**kern: l = terminal long
!!!system-decoration: s1,s2,s3,s4
!!!ENC: Marta Lawrence
!!!END: 2020-02-14
!!!URL-scan: https://polona.pl/item/melodiae-na-psalterz-polski,Nzk3MTM4ODQ/186 Scan on Polona
!!!IIIF: https://polona.pl/iiif/item/Nzk3MTM4ODQ/manifest.json
